X:1
T: Rosie
P: for The Dream Catcher (Bk 45)
C:Eric Allen
R:Strathspey
Q: 128
K:G
M:4/4
L:1/16
|:G2F2|E2F2 E2D2 B,4 E2F2|G4 A2B2 e6 d2|B2d2 B2A2 G4 A2B2|D6 E2 D4 G2F2|
E2F2 G2A2 B6 A2|G2A2 B2^d2 e4 f2g2|B6 D2 A2G2 F2G2|E2G2 B2e2 E4:|
E2F2|G6 D2 A6 D2|B2d2 B2G2 F2A2 F2D2|C6 DE D4 G4|G2F2 G2B2 A4 B2c2|
d6 B2 g6 f2|e2g2 e2c2 B2d2 B2G2|E4 c2B2 A4 G2F2|G6 A2 G2D2 B2A2|
G6 B2 A6 c2|B2d2 g2f2 e2d2 c2B2|c6 de d2B2 A2G2|D2G2 c2B2 A4 D2C2|
B,6 D2 C6 E2|D2d2 B2G2 E2e2 c2A2|B6 D2 B2A2 G2F2|G6 A2 G4||
